icon-themes/sifr_svg/cmd/lc_connectorlinesarrowend.svg

<svg viewBox="0 0 24 24" xmlns="http://www.w3.org/2000/svg"><path d="m5 1c-2.1972955 0-4 1.8027043-4 4s1.8027045 4 4 4c1.8503027 0 3.4055918-1.284213 3.8554688-3h.390625l3.7929682 13.275391a1.0001 1.0001 0 0 0 .960938.724609h4.822266l-1.509766 1.28125c-.18267.1903-.3125.46186-.3125.71875v1h.414062.585938c.30945 0 .55232-.0903.75-.28125 1.41667-1.07301 2.83333-2.64575 4.25-3.71875l-4.25-3.71875c-.19768-.19095-.44055-.28125-.75-.28125h-.585938-.414062v1c0 .25689.12983.52846.3125.71875l1.509766 1.28125h-4.06836l-3.792968-13.2753906a1.0001 1.0001 0 0 0 -.960938-.7246094h-1.1445312c-.449877-1.715787-2.0051661-3-3.8554688-3zm0 2c1.1164148 0 2 .8835841 2 2s-.8835852 2-2 2-2-.8835841-2-2 .8835852-2 2-2z" fill="#555753"/></svg>

<svg xmlns="http://www.w3.org/2000/svg" viewBox="0 0 24 24">
 <path
     style="fill:#555753"
     d="M 5 1 C 2.8027045 1 1 2.8027043 1 5 C 1 7.1972957 2.8027045 9 5 9 C 6.8503027 9 8.4055918 7.715787 8.8554688 6 L 9.2460938 6 L 13.039062 19.275391 A 1.0001 1.0001 0 0 0 14 20 L 18.822266 20 L 17.3125 21.28125 C 17.12983 21.47155 17 21.74311 17 22 L 17 23 L 17.414062 23 L 18 23 C 18.30945 23 18.55232 22.9097 18.75 22.71875 C 20.16667 21.64574 21.58333 20.073 23 19 L 18.75 15.28125 C 18.55232 15.0903 18.30945 15 18 15 L 17.414062 15 L 17 15 L 17 16 C 17 16.25689 17.12983 16.52846 17.3125 16.71875 L 18.822266 18 L 14.753906 18 L 10.960938 4.7246094 A 1.0001 1.0001 0 0 0 10 4 L 8.8554688 4 C 8.4055918 2.284213 6.8503027 1 5 1 z M 5 3 C 6.1164148 3 7 3.8835841 7 5 C 7 6.1164159 6.1164148 7 5 7 C 3.8835852 7 3 6.1164159 3 5 C 3 3.8835841 3.8835852 3 5 3 z "
     />
 </svg>
